X:1
T:Doctor bonus - Victoria
T:#
%%score [ 1 2 3 4 ]
L:1/8
Q:1/4=200
M:none
K:C
V:1 treble nm="Soprano" snm="S"
V:2 treble nm="Alto" snm="A"
V:3 treble-8 nm="Tenor" snm="T"
V:4 bass nm="Bass" snm="B"
V:1
"^Doctor bonus""^Tomás Luis de Victoria\n(1548-1611)" G12 G4 | A8 G8 | z4 G4 c4 c4 | %3
w: Do- ctor|bo- nus|a- mi- cus|
 (B4 A6 GF E2 F2 | G8) A4 (c4- | c4 B2 A2) (B2 A2 G2 F2 | E6 DC D8) |[M:4/2] E16 | z4 A4 c4 c4 | %9
w: De\- * * * * *|* i An\-|* * * dre\- * * *||as|a- mi- cus|
 (B4 c4) A8 | z16 | z4 G4 c8- | c8 B4 G4- | G4 G4 A8 | G4 B8 B4 | c8 B8 | z4 G4 G4 G4 | A8 G4 E4 | %18
w: De\- * i||An- dre\-|* as, do\-|* ctor bo-|nus, do- ctor|bo- nus|a- mi- cus|De- i An-|
 (F6 G2 A4 G4-) | (G4 ^F2 E2 F8) | G16 | z4 G8 E4 | C4 C4 (c8 | d8) G8- | G8 z8 | z4 G4 c6 c2 | %26
w: dre\- * * *||as|du- ci-|tur ad cru\-|* cem:||a- spi- ci-|
 c8 d8 | (e6 d2 c2 B2 A4- | A4 G2 F2 E4 ^F4 | G6 =FG A4 G4- | G4 ^F4) G8- | G8 z4 D4 | %32
w: ens a|lon\- * * * *|||* * ge,|* a-|
 G6 G2 A4 B4 | c8 B8 | B16 | c16 | d8 B8 | (c6 BA G8) | A16 | D8 z8 | G16- | G16 | G16 | ^F8 (G8 | %44
w: spi- ci- ens a|lon- ge,|vi-|dit|cru- cem|et * * *|di-|xit:|Sal\-||ve|crux, sal\-|
 A8) G8 | z4 (G6 F2 E2 D2) | C4 E4 D8 | z8 (d8- | d8 c8- | c8 d8- | d8) G8 | A8 z8 | z8 z4 c4- | %53
w: * ve|sal\- * * *|* ve crux|sal\-|||* ve|crux,|su\-|
 c4 c4 B8 | A8 G8 | F8 E8 | (F8 E4 C4) | D8 z4 G4- | G4 G4 E8 | C4 (c6 B2 A2 G2 | A4 G8 ^F4) | %61
w: * sci- pe|di- sci-|pu- lum|e\- * *|ius qui|* pe- pen-|dit in * * *||
 G16 | z8 z4 G4 | A4 B4 c8- | c4 B4 A8 | G8 z4 D4 | E4 F4 G8- | G4 F4 E8 | D8 z8 | z4 G4 A4 B4 | %70
w: te|ma-|gi- ster me\-|* us Chri-|stus, ma-|gi- ster me\-|* us Chri-|stus,|ma- gi- ster|
 c12 B4 | A8 G8 | z4[Q:1/4=198] D4[Q:1/4=196] E4[Q:1/4=193] F4 |[Q:1/4=189] (G12[Q:1/4=184] F4) | %74
w: me- us|Chri- stus,|ma- gi- ster|me\- *|
[Q:1/4=182] (E2[Q:1/4=181] F2[Q:1/4=180] G2[Q:1/4=179] E2[Q:1/4=177] ^F4)[Q:1/4=175] (G4- | %75
w: us * * * * Chri\-|
[Q:1/4=173] G4[Q:1/4=171] ^F4)[Q:1/4=170] G16 |] %76
w: * * stus.|
V:2
 z16 | z16 | C12 C4 | D8 C8 | z4 C4 F4 F4 | (E4 D2 C2 D8) | C4 (C8 B,4) |[M:4/2] C8 G,4 G4- | %8
w: ||Do- ctor|bo- nus|a- mi- cus|De\- * * *|i An\- *|dre- as, a\-|
 G4 F4 E4 (G4- | G2 F2 E2 D2 C2 B,2 A,4) | G,4 (D6 E2 F4) | E4 D4 z4 C4- | C4 C4 D8 | C4 E4 F4 F4 | %14
w: * mi- cus De\-||i An\- * *|dre- as, do\-|* ctor bo-|nus, a- mi- cus|
 (E4 D2 C2 D8) | C4 C4 G4 G4 | (F4 E4) D8 | z4 A,4 (B,4 ^C4 | D8 E8) | D8 z4 D4- | D4 B,4 G,4 D4 | %21
w: De\- * * *|i, a- mi- cus|De\- * i|An- dre\- *||as du\-|* ci- tur ad|
 (E6 D2 E2 F2 G2 E2 | F2 G2 A8 G4 | F12 E2 D2 | E8) A,8 | z8 z4 C4 | F6 F2 F8 | G8 (A6 G2 | %28
w: cru\- * * * * *|||* cem:|a-|spi- ci- ens|a lon\- *|
 F4 E6 D2 C4- | C4 B,4 C8) | A,8 z4"A" G,4 | C6 C2 C4 D4 | (E2 D2 C2 B,2 A,2 G,2 G,4- | %33
w: ||ge, *|spi- ci- ens a|lon\- * * * * * *|
 G,4 ^F,4) G,8 | z8 G8 | E8 A8 | F8 D8 | (E12 D4) | C16 | B,8 z8 | (E16 | D16 | E16) | %43
w: * * ge|vi-|dit cru-|cem et|di\- *||xit:|Sal\-|||
 A,4 (D6 C2 D2 E2 | F8 E4 D2 C2 | D4) D4 E4 (G2 F2) | (E2 D2 C2 B,2 A,4) A,4 | (B,6 C2 D8- | %48
w: ve, sal\- * * *||* ve crux, sal\- *|* * * * * ve|crux * *|
 D8) z4 (A4- | A4 G4 F8- | F4) F4 E4 C4- | C4 C4 D4 B,4 | C4 A,4 B,4 (G,4- | G,4 ^F,4) G,8 | %54
w: * sal\-||* ve crux su\-|* sci- pe di-|sci- pu- lum e\-|* * ius|
 z4 D8 E4 | C4 D4 B,4 C4 | A,4 (D6 C2 C4- | C4 B,2 A,2 B,2 C2 D4) | G,4 G8 G4 | E8 C4 (C4 | %60
w: su- sci-|pe di- sci- pu-|lum e\- * *||ius, qui pe-|pen- dit in|
 A,4 B,4 C8) | D8 z4 D4 | C4 D4 E8 | A,4 D4 E4 ^F4 | G12 =F4 | E8 D8 | z4 A,4 B,4 ^C4 | %67
w: |te ma-|gi- ster me-|us, ma- gi- ster|me- us|Chri- stus,|ma- gi- ster|
 (D6 =C2 A,2 B,2 C4) | G,4 D4 C4 D4 | E12 D4 | (C6 D2 E2 F2 G4-) | (G4 F4 E8) | D8 z4 A,4 | %73
w: me\- * * * *|us, ma- gi- ster|me- us|Chri\- * * * *||stus, ma-|
 B,4 ^C4 D8 | E8 D8- | D8 D16 |] %76
w: gi- ster me-|us Chri\-|* stus.|
V:3
 z16 | z16 | z16 | z16 | z16 | G12 G4 | A8 G8 |[M:4/2][K:treble-8] z4 G4 c4 c4 | (B4 A6 GF E2 F2 | %9
w: |||||Do- ctor|bo- nus|a- mi- cus|De\- * * * * *|
 G8) A4 c4- | c4 (B2 A2 B4 A4- | A2 G2 G8 ^F2 E2 | ^F4 E4 G8) | E4 (C4 F2 G2 A2 B2 | %14
w: * i An\-|* dre\- * * *|||as, a- mi\- * * *|
 c4 B2 A2 B2 c2 d2 B2 | e6 c2 d4) e4 | (d4 c8 B4) | c8 z4 G4 | (A4 B4 c8) | (B4 A2 G2 A8) | %20
w: |* * * cus|De\- * *|i An-|dre\- * *||
 G4 d8 B4 | G4 B4 (c6 B2 | A4 F2 G2 A2 B2 c4- | c4 B4) c4 G4 | c6 c2 c4 c4 | (d4 e6 d2 c2 B2 | %26
w: as du- ci-|tur ad cru\- *||* * cem: a-|spi- ci- ens a|lon\- * * * *|
 A2 G2 c6 B2 B2 A2 | c8) c8 | z4 G4 c6 c2 | d4 d4 (e8- | e4 d2 c2 B2 A2 G2 F2) | (E2 D2 E6 C2 G4- | %32
w: |* ge|a- spi- ci-|ens a lon\-|||
 G2 F2 E2 D2 E4 D4 | C8) D4 d4- | d4 B8 e4- | e4 c8 A4- | A4 (d6 c2 B2 A2 | G6 F2 E2 D2 G4-) | %38
w: |* ge, vi\-|* dit cru\-|* cem et|* di\- * * *||
 (G4 ^F2 E2 F8) | G8 z8 | z8 (c8- | c4 B2 A2 B2 c2 d4- | d4 ^c2 B2 c4) c4 | d8 (B8 | %44
w: |xit:|Sal\-||* * * * ve|crux, sal\-|
 =c4 d6 c2 c4- | c4) B4 c4 (C2 D2) | (E2 F2 G8) ^F4 | G4 (B8 A2 G2 | A4 B4 c2 B2 A2 G2 | %49
w: |* ve crux, sal\- *|* * * ve|crux, sal\- * *||
 A2 B2 c8 B2 A2 | B4) B4 c8 | z4 F6 F2 G4 | E4 F4 D4 E4 | C8 D4 d4- | d4 d4 B4 c4 | A4 _B4 G4 (A4 | %56
w: |* ve crux,|su- sci- pe|di- sci- pu- lum|e- ius, su\-|* sci- pe di-|sci- pu- lum e\-|
 D2 E2 F2 G2 A8) | G4 d4 d4 B4- | B4 G8 c4- | (c2 BA G4 A6 B2 | c2 d2 e6 d2 c4- | %61
w: |ius, qui pe- pen\-|* dit in|||
 c4) (B2 A2 B4) G4 | A4 B4 c8- | c4 B4 A8 | G8 z4 d4- | (d2 c2 c8 B2 A2 | B2 c2 d4) G4 G4 | %67
w: * te, * * ma-|gi- ster me\-|* us Chri-|stus, Chri\-||* * * stus, ma-|
 A4 B4 c8- | c4 B4 A8 | G8 z4 D4 | E4 ^F4 G8 | D4 (d6 c2 c4- | c4 B2 A2 B4) A4 | z4 G4 A4 B4 | %74
w: gi- ster me\-|* us Chri-|stus ma-|gi- ster me-|us Chri\- * *|* * * * stus,|ma- gi- ster|
 c12 B4 | A8 G16 |] %76
w: me- us|Chri- stus.|
V:4
 z16 | z16 | z16 | z16 | z16 | z16 | z16 |[M:4/2] C,12 C,4 | D,8 C,8 | z4 C,4 F,4 F,4 | %10
w: |||||||Do- ctor|bo- nus|a- mi- cus|
 (E,4 D,2 C,2 D,8) | C,4 B,,4 A,,8- | A,,8 G,,8 | z16 | z4 G,8 G,4 | A,8 G,8 | z4 C,4 G,4 G,4 | %17
w: De\- * * *|i An- dre\-|* as,||do- ctor|bo- nus|a- mi- cus|
 F,8 E,4 E,4 | D,8 C,8 | D,16 | G,,8 z4 G,4- | G,4 E,4 C,4 C,4 | (F,12 E,4 | D,8) C,8 | %24
w: De- i An-|dre\- *||as du\-|* ci- tur ad|cru\- *|* cem:|
 z4 C,4 F,6 F,2 | F,4 G,4 (A,6 G,2 | F,2 E,2 F,4 D,8) | C,4 C,4 F,6 F,2 | F,4 G,4 A,8 | %29
w: a- spi- ci-|ens a lon\- *||ge, a- spi- ci-|ens a lon-|
 G,4 G,,4 C,6 C,2 | C,4 D,4 (E,6 D,2) | (C,2 B,,2 C,8 B,,4 | C,12 B,,4 | A,,8) G,,8 | G,8 E,8 | %35
w: ge, as- pi- ci-|ens a lon\- *|||* ge,|vi- dit|
 A,8 F,8 | D,8 (G,6 F,2 | E,2 D,2 C,8 B,,4) | A,,16 | G,,8 z8 | C,16 | G,,8 (G,6 F,2 | E,12) E,4 | %43
w: cru- cem|et di\- *|||xit:|Sal-|ve, sal\- *|* ve|
 D,8 (G,8 | F,8 G,8- | G,8) C,8- | C,8 D,8 | z4 (G,8 ^F,2 E,2 | ^F,4 G,4 A,2 G,2 =F,2 E,2 | %49
w: crux, sal\-||* ve|* crux|sal\- * *||
 F,4 E,4 D,8- | D,4) D,4 C,8 | F,6 F,2 D,4 E,4 | C,4 D,4 B,,4 (C,4 | A,,8) G,,8 | z16 | z16 | z16 | %57
w: |* ve crux,|su- sci- pe di-|sci- pu- lum e\-|* ius||||
 z4 G,8 G,4 | E,8 C,8- | C,8 (F,8- | F,4 E,4 A,8) | G,16 | z16 | z16 | z8 D,8 | E,4 F,4 G,8- | %66
w: qui pe-|pen- dit|* in||te|||ma-|gi- ster me\-|
 G,4 F,4 E,8 | D,8 z8 | z4 G,,4 A,,4 B,,4 | C,12 B,,4 | A,,8 G,,8 | z4 D,4 E,4 F,4 | G,12 F,4 | %73
w: * us Chri-|stus,|ma- gi- ster|me- us|Chri- stus,|ma- gi- ster|me- us|
 (E,8 D,8) | C,8 D,8- | D,8 G,,16 |] %76
w: Chri\- *|stus, Chri\-|* stus.|

